X: 4
T:Wee Johnny
D:Four Men and a Dog :Barking Mad
P:2
M:6/8
L:1/8
Q:224
K:D
|:AFd AFd| AFD ~E2 F| GFG Eed| cBc dcB|AFd AFd| AFD ~E2 F|
GFG Eed| cBc d2 B:||:Adf agf| efg ~B2 B| cBc ABc| dAG FED|
Adf agf| efg ~B2 B| cBc ABc| dfe d2 B:|
